X:1
T:THE WHITE SEAL RAG.
T:THE WHITE SEAL RAG.
T:By KITTIE M. HAMEL.
T: Dedicated to Mr. Thos. Hanton, Chicago Ill. 
T:Copyright 1907 by JEROME H. REMICK &amp; Co.
T:Copyright 1907 by JEROME H. REMICK &amp; Co.
T:Copyright 1907 by JEROME H. REMICK &amp; Co.
T:Copyright 1907 by JEROME H. REMICK &amp; Co.
C:By KITTIE M. HAMEL.
Z:Copyright 1907 by JEROME H. REMICK & Co.
%%score { ( 1 3 ) | 2 }
L:1/8
Q:1/4=90
M:2/4
K:F
V:1 treble nm="Piano" snm="Pno."
V:3 treble 
V:2 bass 
V:1
 C/D/E/C/ DE | c/d/e/c/ de | c/d/e/c/ dg | c z !>![cegc'] z ||!mf! c'/=b/c'/d'/ c'/_b/g | %5
 e/^d/e/g/ e/=d/c | f/e/f/a/ e/d/c/[cac']/- | [cac'] [dad']3 | %8
!8va(! e'/^d'/e'/g'/ e'/=d'/c'!8va)! | [Gg]2 [Geg][^Ge^g] | [Afa]/^g/a/c'/ a/=g/f | [Dd]2 [Dd]2 | %12
!mf! c'/=b/c'/d'/ c'/_b/g | e/^d/e/g/ e/=d/c | f/e/f/a/ e/d/c/[cac']/- | [cac']2 [^c^c']2 | %16
 d'/^c'/d'/_e'/ d'/b/a | g/^f/g/a/ g/=f/d | c/c'[db]/ [ca][Bg] | %19
 [Af]!<(! !>![Af]!>![Bf]!>![cf]!<)! |:[K:Bb]!f! [df]/[dg]/[da]/[db]/- [db]/[dc']/[dd'] | %21
!8va(! [gg']2 [gg']2!8va)! | [eg]/[ea]/[e=b]/[ec']/- [ec']/[ed']/[ee'] | %23
!8va(! [gg']2 [gg']2!8va)! | [ea]/[eg]/[ef]/[ea]/- [ea]/[eg]/[ef] | %25
 [ea]/[eg]/[ef]/[Ac]/- [Ac][A^c] | [Bd]/c/B/d/- d/c/B | [Aa]/[Ag]/[Af]/[Ae]/- [Ae]/[Ad]/[Ac] | %28
 [df]/[dg]/[da]/[db]/- [db]/[dc']/[dd'] |!8va(! [gg']2 [gg']2!8va)! | %30
 [eg]/[ea]/[e=b]/[ec']/- [ec']/[ed']/[ee'] |!8va(! [gg']2 [gg']2!8va)! | %32
 [ea]/[eg]/[ef]/[ea]/- [ea]/[eg]/[ef] | [ea]/[eg]/[ef]/[Ae]/- [Ae]/[Ad]/[Ac] | B4- |1 %35
 B !>![Af]!>![Bf]!>![cf] :|2{/x-} B z [Bdfb] z |:[K:Eb]!mf!"^TRIO." [Bb]2- [Bb]/[cc']/[Bb]/[Bg]/ | %38
 [Adf]/[G=e]/[Adf]- [Adf]2 | e2- e/f/e/c/ | [EB][E=A]/[EB]/- [EB][Ec] | %41
 [Ad][A^c]/[Ad]/- [Ad]/[Ac]/[Ad]/[Ae]/ | [Af][A=e]/[Af]/- [Af]/[Ae]/[Af]/[=A^f]/ | %43
 [Bg][Bgb]- [Bgb]/[cc']/[Gg] | [Begb]!>![Gg] !>![Aa]!>![=A=a] | [Bb]2- [Bb]/[cc']/[Bb]/[Bg]/ | %46
 [Adf]/[G=e]/[Adf]- [Adf]2 | e2- e/f/e/c/ | [EB][E=A]/[EB]/- [EB]!>![DG=B] | c/=B/c/d/ =e/c/d/e/ | %50
 f/=e/f/g/ a<c' | [Gg]2 [Ff]2 |1 [EGBe]2- [EGBe][Gg] :|2 %53
{/x-} [EGBe]!<(! !>![DB]!>![EB]!>![FB]!<)! || [GB]/[Gc]/[Gd]/[Ge]/- [Ge]/[Gf]/[Gg] | %55
 [cc']2 [cc']2 | [Ac]/[Ad]/[A=e]/[Af]/- [Af]/[Ag]/[Aa] | [cc']2 [cc']2 | %58
 [ad']/[ac']/[ab]/[ad']/- [ad']/[ac']/[ab] | [ad']/[ac']/[ab]/[df]/- [df][d^f] | %60
 [eg]/f/e/g/- g/f/e | [dd']/[dc']/[db]/[da]/- [da]/[dg]/[dg] | %62
 [GB]/[Gc]/[Gd]/[Ge]/- [Ge]/[Gf]/[Gg] | [cc']2 [cc']2 | [Ac]/[Ad]/[A=e]/[Af]/- [Af]/[Ag]/[Aa] | %65
 [cc']2 [cc']2 | [ad']/[ac']/[ab]/[ad']/- [ad']/[ac']/[ab] | %67
 [ad']/[ac']/[ab]/[da]/- [da]/[dg]/[df] | e4- | e z !>!e z |] %70
V:2
 [C,E,B,]4 |[K:treble] [CEB]4 | [CEB]2 [CFB]2 | [CEB] z[K:bass] !>![C,,C,] z || G,[B,CE] C,[B,CE] | %5
 G,[B,CE] C,[B,CE] | F,[A,CF] C,[A,CF] | F,[A,CF] !>![A,,A,]!>![_A,,_A,] | [G,,G,][B,CE] C,[B,CE] | %9
 E,[B,CE]"^cresc." !>![C,,C,]!>![E,,E,] | [F,,F,][A,CF] C,[A,CF] | %11
 [F,,F,]2 !>![A,,A,]!>![_A,,_A,] | G,[B,CE] C,[B,CE] | G,[B,CE] C,[B,CE] | F,[A,CF] C,[A,CF] | %15
 F,[A,CF] !>![A,,A,]!>![G,,G,] | [^F,,^F,][F,CD] [D,,G,,][F,CD] | B,,[=F,G,=B,] G,,[F,G,B,] | %18
 C,[_B,CE] C,[B,CE] | [F,CF] !>![F,,F,]!>![G,,G,]!>![A,,A,] |: %20
[K:Bb] [B,,B,][F,B,D] [B,,B,][_A,,_A,] | [G,,G,][F,G,=B,] F,[G,B,D] | E,[G,CE] C,[E,G,C] | %23
 E,[G,C] C,[E,G,C] | C,[F,A,E] F,,[F,A,E] | C,[F,A,E] !>![F,,F,]!>![A,,A,] | %26
 [B,,B,][F,B,D] F,,[F,B,D] | C,[F,A,E] !>![F,,F,]!>![A,,A,] | [B,,B,][F,B,D] [B,,B,][_A,,_A,] | %29
 [G,,G,][F,G,=B,] F,[G,B,D] | E,[G,CE] C,[E,G,C] | E,[G,C] C,[E,G,C] | C,[F,A,E] F,,[F,A,E] | %33
 C,[F,A,E] F,,[F,A,E] | B,F, G,/F,D,/ |1 B,, !>![F,,F,]!>![G,,G,]!>![A,,A,] :|2 %36
 B,, z [B,,,B,,] z |:[K:Eb] F,[A,B,D] B,,[A,B,D] | F,[A,B,D] B,,[A,B,D] | E,[G,B,E] B,,[G,B,E] | %40
 [E,G,][E,^F,]/[E,G,]/- [E,G,][_G,,_G,] | [F,,F,][A,B,D] B,,[A,B,D] | F,[A,B,D] B,,[A,B,D] | %43
 E,[G,B,E] B,,[G,B,E] | [E,,E,] z z2 | F,[A,B,D] B,,[A,B,D] | F,[A,B,D] B,,[A,B,D] | %47
 E,[G,B,E] B,,[G,B,E] | [E,G,][E,^F,]/[E,G,]/- [E,G,]!>![=F,,=F,] | [=E,,=E,][B,C=E] C,[B,CE] | %50
 A,,[F,A,C] F,,[F,A,C] | B,,[A,B,D] B,,[A,B,D] |1 E,!>!B,, !>![E,,E,] z :|2 %53
 E, !>![B,,B,]!>![C,C]!>![D,D] || E,[G,B,E] [E,E][_D,_D] | [C,C][B,C=E] B,[CEG] | A,[CF] F,[A,CF] | %57
 A,[CF] F,[A,CF] | F,[A,B,D] B,,[A,B,D] | F,[A,B,D] !>![B,,,B,,]!>![D,,D,] | %60
 [E,,E,][G,B,E] B,,[G,B,E] | F,[A,B,D] !>![B,,,B,,]!>![D,,D,] | E,[G,B,E] [E,E][_D,_D] | %63
 [C,C][B,C=E] B,[CEG] | A,[CF] F,[A,CF] | A,[CF] F,[A,CF] | F,[A,B,D] B,,[A,B,D] | %67
 F,[A,B,D] B,,[A,B,D] | [E,E][B,,B,] [C,C]/[B,,B,][G,,G,]/ | [E,,E,] z !>![E,,E,] z |] %70
V:3
 x4 | x4 | x4 | x4 || x4 | x4 | x4 | x4 |!8va(! x4!8va)! | z [Be] x2 | x4 | %11
 z [FA]/[FA]/ z [F_A]/[FA]/ | x4 | x4 | x4 | x3 [ea] | x4 | x4 | x4 | x4 |:[K:Bb] x4 | %21
!8va(! z [=bd'] z [bd']!8va)! | x4 |!8va(! z [c'e'] z [c'e']!8va)! | x4 | x4 | x4 | x4 | x4 | %29
!8va(! z [=bd'] z [bd']!8va)! | x4 |!8va(! z [c'e'] z [c'e']!8va)! | x4 | x4 | %34
 z [DF] [DF]/[DF][DF]/ |1 [DF] x3 :|2 [DF] x3 |:[K:Eb] z [df] x2 | x4 | z [GB] z G | x4 | x4 | x4 | %43
 x4 | x4 | z [df] x2 | x4 | z [GB] z G | x4 | x4 | x4 | x4 |1 x4 :|2 x4 || x4 | z [=eg] z [eg] | %56
 x4 | z [fa] z [fa] | x4 | x4 | x4 | x4 | x4 | z [=eg] z [eg] | x4 | z [fa] z [fa] | x4 | x4 | %68
 [GB][GB] [GB]/[GB][GB]/ | [GB] x [GB] x |] %70

